svg/device/iMac_line.svg

<?xml version="1.0" encoding="UTF-8"?>
<svg width="24px" height="24px" viewBox="0 0 24 24" version="1.1" xmlns="http://www.w3.org/2000/svg" xmlns:xlink="http://www.w3.org/1999/xlink">
    <title>iMac_line</title>
    <g id="页面-1" stroke="none" stroke-width="1" fill="none" fill-rule="evenodd">
        <g id="iMac_line">
             <path d="M24,0 L24,24 L0,24 L0,0 L24,0 Z M12.5934901,23.257841 L12.5819402,23.2595131 L12.5108777,23.2950439 L12.4918791,23.2987469 L12.4918791,23.2987469 L12.4767152,23.2950439 L12.4056548,23.2595131 C12.3958229,23.2563662 12.3870493,23.2590235 12.3821421,23.2649074 L12.3780323,23.275831 L12.360941,23.7031097 L12.3658947,23.7234994 L12.3769048,23.7357139 L12.4804777,23.8096931 L12.4953491,23.8136134 L12.4953491,23.8136134 L12.5071152,23.8096931 L12.6106902,23.7357139 L12.6232938,23.7196733 L12.6232938,23.7196733 L12.6266527,23.7031097 L12.609561,23.275831 C12.6075724,23.2657013 12.6010112,23.2592993 12.5934901,23.257841 L12.5934901,23.257841 Z M12.8583906,23.1452862 L12.8445485,23.1473072 L12.6598443,23.2396597 L12.6498822,23.2499052 L12.6498822,23.2499052 L12.6471943,23.2611114 L12.6650943,23.6906389 L12.6699349,23.7034178 L12.6699349,23.7034178 L12.678386,23.7104931 L12.8793402,23.8032389 C12.8914285,23.8068999 12.9022333,23.8029875 12.9078286,23.7952264 L12.9118235,23.7811639 L12.8776777,23.1665331 C12.8752882,23.1545897 12.8674102,23.1470016 12.8583906,23.1452862 L12.8583906,23.1452862 Z M12.1430473,23.1473072 C12.1332178,23.1423925 12.1221763,23.1452606 12.1156365,23.1525954 L12.1099173,23.1665331 L12.0757714,23.7811639 C12.0751323,23.7926639 12.0828099,23.8018602 12.0926481,23.8045676 L12.108256,23.8032389 L12.3092106,23.7104931 L12.3186497,23.7024347 L12.3186497,23.7024347 L12.3225043,23.6906389 L12.340401,23.2611114 L12.337245,23.2485176 L12.337245,23.2485176 L12.3277531,23.2396597 L12.1430473,23.1473072 Z" id="MingCute" fill-rule="nonzero"></path>
            <path d="M19,3 C20.1046,3 21,3.89543 21,5 L21,15 C21,16.1046 20.1046,17 19,17 L15.0324,17 C15.0702,17.5448333 15.1371222,17.9623 15.2116926,18.2792 L15.2769822,18.5268251 L15.3430128,18.7289434 C15.3539126,18.759046 15.3647182,18.7874086 15.3753668,18.8141096 L15.4368741,18.955 L15.4916095,19.0597598 L15.5365679,19.1321394 L15.5791,19.1882 C16.0251,19.5319 16.0027,20.0478 15.9183,20.3041 C15.8321,20.5656 15.5367,21 14.9577,21 L9.04241,21 C8.46343,21 8.16798,20.5656 8.08179,20.304 C7.99736,20.0478 7.975,19.5319 8.42098,19.1882 L8.46353732,19.1321394 L8.50850757,19.0597598 L8.56325111,18.955 L8.62476309,18.8141096 C8.75255224,18.493698 8.90292286,17.934 8.9677,17 L5,17 C3.89543,17 3,16.1046 3,15 L3,5 C3,3.89543 3.89543,3 5,3 L19,3 Z M13.0287,17 L10.9714,17 C10.928,17.7212625 10.8378203,18.3129812 10.7194178,18.7984025 L10.667,19 L13.3331,19 C13.2070125,18.544475 13.1064969,17.9859734 13.05011,17.301249 L13.0287,17 Z M19,14 L5,14 L5,15 L19,15 L19,14 Z M19,5 L5,5 L5,12 L19,12 L19,5 Z" id="形状" fill="#09244B" fill-rule="nonzero"></path>
        </g>
    </g>
</svg>

<svg xmlns="http://www.w3.org/2000/svg" width="24" height="24"><g fill="none" fill-rule="evenodd"><path d="M24 0v24H0V0h24ZM12.593 23.258l-.011.002-.071.035-.02.004-.014-.004-.071-.035c-.01-.004-.019-.001-.024.005l-.004.01-.017.428.005.02.01.013.104.074.015.004.012-.004.104-.074.012-.016.004-.017-.017-.427c-.002-.01-.009-.017-.017-.018Zm.265-.113-.013.002-.185.093-.01.01-.003.011.018.43.005.012.008.007.201.093c.012.004.023 0 .029-.008l.004-.014-.034-.614c-.003-.012-.01-.02-.02-.022Zm-.715.002a.023.023 0 0 0-.027.006l-.006.014-.034.614c0 .012.007.02.017.024l.015-.002.201-.093.01-.008.004-.011.017-.43-.003-.012-.01-.01-.184-.092Z"/><path fill="#09244B" fill-rule="nonzero" d="M19 3a2 2 0 0 1 2 2v10a2 2 0 0 1-2 2h-3.968c.038.545.105.962.18 1.28l.065.247.066.202c.01.03.022.058.032.085l.062.141.055.105.045.072.042.056c.446.344.424.86.34 1.116-.087.262-.382.696-.961.696H9.042c-.579 0-.874-.434-.96-.696-.085-.256-.107-.772.339-1.116l.043-.056.045-.072.054-.105.062-.14c.128-.321.278-.881.343-1.815H5a2 2 0 0 1-2-2V5a2 2 0 0 1 2-2h14Zm-5.971 14H10.97a10.206 10.206 0 0 1-.252 1.798l-.052.202h2.666a9.23 9.23 0 0 1-.283-1.699L13.03 17ZM19 14H5v1h14v-1Zm0-9H5v7h14V5Z"/></g></svg>
